X:569
T: ICH HABE MEIN FEINSLIEBCHEN
N: E0536
O: Europa, Mitteleuropa, Deutschland
R: Liebes - Lied
M: 3/4
L: 1/8
K: F
C | FAc2A2 | cBG2z
F | EFG2B2 | dcA2z
C | FFA2c2 | f4-f
d | cBc2G2 | F4z

